Papirus/48x48/apps/substance.svg

<svg width="48" height="48" version="1.1" xmlns="http://www.w3.org/2000/svg">
 <path d="m24 3-18 11v8.5l26.182345 8.652062-8.182345 4.847938-10-6v-2l-8.0000003-2.5v8.5l18 11 18-11v-8.5l-26.182346-8.652061 8.182346-4.847939 10 6v2l8 2.5v-8.5z" style="fill:#e52e38"/>
 <path d="m24 12-8.181641 4.847656 1.083985 0.357422 7.097656-4.205078 10 6v-1zm10 8v1l8 2.5v-1zm-28 2.5v1l25.097656 8.294922 1.083985-0.642578zm0 11.5v1l18 11 18-11v-1l-18 11z" style="opacity:.2"/>
 <path d="M 24,3 6,14 v 1 L 24,4 42,15 V 14 Z M 16.902344,17.205078 15.818359,17.847656 42,26.5 v -1 z M 6,25.5 v 1 l 8,2.5 v -1 z m 8,4.5 v 1 L 24,37 32.181641,32.152344 31.097656,31.794922 24,36 Z" style="fill:#ffffff;opacity:.2"/>
</svg>

<svg xmlns="http://www.w3.org/2000/svg" width="48" height="48" version="1.1">
 <path style="opacity:0.2" d="M 24,4 6,15 V 23.5 L 32.182,32.152 24,37 14,31 V 29 L 6,26.5 V 35 L 24,46 42,35 V 26.5 L 15.818,17.848 24,13 34,19 V 21 L 42,23.5 V 15 Z"/>
 <path style="fill:#e52e38" d="M 24,3 6,14 V 22.5 L 32.182,31.152 24,36 14,30 V 28 L 6,25.5 V 34 L 24,45 42,34 V 25.5 L 15.818,16.848 24,12 34,18 V 20 L 42,22.5 V 14 Z"/>
 <path style="fill:#ffffff;opacity:0.2" d="M 24 3 L 6 14 L 6 15 L 24 4 L 42 15 L 42 14 L 24 3 z M 16.902 17.205 L 15.818 17.848 L 42 26.5 L 42 25.5 L 16.902 17.205 z M 6 25.5 L 6 26.5 L 14 29 L 14 28 L 6 25.5 z M 14 30 L 14 31 L 24 37 L 32.182 32.152 L 31.098 31.795 L 24 36 L 14 30 z"/>
</svg>
